X: 6
T:Maple Sugar
% Nottingham Music Database
S:via PR
M:4/4
L:1/4
K:D
[FA][GA] |:"D"[A2d2] [A3/2d3/2][B/2d/2]|[Ad][F2A2][Ad]|"D"[f2a2] [f3/2a3/2][e/2g/2]|[df][Ad] [Bd][Ad]|"A"[e2a2] [e3/2a3/2][d/2f/2]|"A7"[ce][Ac] [Bd][ce]|\
 [1"D"[d3/2f3/2][d/2f/2] [ce][Bd]|"A7"[Ac][FA] [GA][^G=c]:|
 [2"D"[df][Ad] "A7"[Bd][ce]|"D"[d2f2] |:"E7"[ce][de] |"A"[e2a2] [e3/2a3/2][e/2a/2]|[ea][fa] [ea][df]|"A"[df][ce] -[ce][=ce]|[c2e2] [df][ce]|\
"E7"[ce][Bd] -[Bd][ce]|"E7"[d2e2] [ce][Bd]| [1"A"[A3/2c3/2][A/2c/2] "E7"[ce][de]|"A"[e2a2] :|
 [2"A"[A3/2c3/2][A/2c/2] "E7"[ce][Bd]|"A"[A2c2] ||


